icons/hashicorp.svg

<svg width="16" height="16" viewBox="0 0 16 16" fill="none" xmlns="http://www.w3.org/2000/svg">
<path fill-rule="evenodd" clip-rule="evenodd" d="M7 2L2 4.91115V11.9054L4 13V6L7 4.18715V2ZM9 2V7.6485H7V5.5L5 6.65094V13.8877L7 15V9.36767H9V11.5L11 10.3515V3.10998L9 2ZM14 12.0887L9 15V12.8129L12 11V4L14 5.09462V12.0887Z" fill="#2E71E5"/>
</svg>

<svg xmlns="http://www.w3.org/2000/svg" width="16" height="16" fill="none"><path fill="#2E71E5" fill-rule="evenodd" d="M7 2 2 4.911v6.994L4 13V6l3-1.813V2Zm2 0v5.649H7V5.5L5 6.65v7.238L7 15V9.368h2V11.5l2-1.149V3.11L9 2Zm5 10.089L9 15v-2.187L12 11V4l2 1.095v6.994Z" clip-rule="evenodd"/></svg>
